X: 23059
T: Late Again
R: reel
M: 4/4
K: Dmajor
|:dAFA dAFA|BAGB AFDF|dAFA dAFA|BAGF EFGE|
dAFA dAFA|BAGB AFD2|FGAB AGFE|1 D2D2 D2Bc:|2 D2D2 D2fg||
|:afdf afdf|gabg afdf|afdf afdf|bagf efge|
afdf afdf|gabg afde|fedf edce|1 d2d2 d2fg:|2 d2d2 d2Bc||

